assets/illustrations/flower-pattern.svg

<svg width="440" height="382" viewBox="0 0 440 382" fill="none" xmlns="http://www.w3.org/2000/svg">
<path d="M78.0439 69.0466L78.0439 47C95.6812 47 100.091 61.6977 100.091 69.0466H78.0439Z" fill="#C0E398"/>
<path d="M78.0469 47.0003L78.0469 69.0469C60.4096 69.0469 56.0003 54.3491 56.0003 47.0003L78.0469 47.0003Z" fill="#C0E398"/>
<path d="M127.655 120.856L127.655 142.902C110.018 142.902 105.609 128.205 105.609 120.856L127.655 120.856Z" fill="#C0E398"/>
<path d="M127.652 142.902L127.652 120.855C145.29 120.855 149.699 135.553 149.699 142.902L127.652 142.902Z" fill="#C0E398"/>
<path d="M78.0439 93.2966L78.0439 71.25C95.6812 71.25 100.091 85.9477 100.091 93.2966H78.0439Z" fill="#C0E398"/>
<path d="M78.0469 71.2503L78.0469 93.2969C60.4096 93.2969 56.0003 78.5991 56.0003 71.2503L78.0469 71.2503Z" fill="#C0E398"/>
<path d="M127.655 96.6057L127.655 118.652C110.018 118.652 105.609 103.955 105.609 96.6057L127.655 96.6057Z" fill="#C0E398"/>
<path d="M127.652 118.652L127.652 96.6055C145.29 96.6055 149.699 111.303 149.699 118.652L127.652 118.652Z" fill="#C0E398"/>
<path d="M125.446 71.25L103.399 71.25C103.399 53.6127 118.097 49.2034 125.446 49.2034L125.446 71.25Z" fill="#C0E398"/>
<path d="M103.4 71.248L125.446 71.248C125.446 88.8853 110.749 93.2947 103.4 93.2947L103.4 71.248Z" fill="#C0E398"/>
<path d="M80.2512 118.65L102.298 118.65C102.298 136.288 87.6001 140.697 80.2512 140.697L80.2512 118.65Z" fill="#C0E398"/>
<path d="M102.299 118.652L80.252 118.652C80.252 101.015 94.9497 96.6057 102.299 96.6057L102.299 118.652Z" fill="#C0E398"/>
<path d="M149.698 71.25L127.651 71.25C127.651 53.6127 142.349 49.2034 149.698 49.2034L149.698 71.25Z" fill="#C0E398"/>
<path d="M127.652 71.248L149.698 71.248C149.698 88.8853 135 93.2947 127.652 93.2947L127.652 71.248Z" fill="#C0E398"/>
<path d="M56.0003 118.65L78.0469 118.65C78.0469 136.288 63.3491 140.697 56.0003 140.697L56.0003 118.65Z" fill="#C0E398"/>
<path d="M78.0476 118.652L56.001 118.652C56.001 101.015 70.6987 96.6057 78.0476 96.6057L78.0476 118.652Z" fill="#C0E398"/>
<path d="M298.044 260.047L298.044 238C315.681 238 320.091 252.698 320.091 260.047H298.044Z" fill="#C0E398"/>
<path d="M298.047 238L298.047 260.047C280.41 260.047 276 245.349 276 238L298.047 238Z" fill="#C0E398"/>
<path d="M347.655 311.856L347.655 333.902C330.018 333.902 325.609 319.205 325.609 311.856L347.655 311.856Z" fill="#C0E398"/>
<path d="M347.652 333.902L347.652 311.855C365.29 311.855 369.699 326.553 369.699 333.902L347.652 333.902Z" fill="#C0E398"/>
<path d="M298.044 284.297L298.044 262.25C315.681 262.25 320.091 276.948 320.091 284.297H298.044Z" fill="#C0E398"/>
<path d="M298.047 262.25L298.047 284.297C280.41 284.297 276 269.599 276 262.25L298.047 262.25Z" fill="#C0E398"/>
<path d="M347.655 287.606L347.655 309.652C330.018 309.652 325.609 294.955 325.609 287.606L347.655 287.606Z" fill="#C0E398"/>
<path d="M347.652 309.652L347.652 287.605C365.29 287.605 369.699 302.303 369.699 309.652L347.652 309.652Z" fill="#C0E398"/>
<path d="M345.446 262.25L323.399 262.25C323.399 244.613 338.097 240.203 345.446 240.203L345.446 262.25Z" fill="#C0E398"/>
<path d="M323.4 262.248L345.446 262.248C345.446 279.885 330.749 284.295 323.4 284.295L323.4 262.248Z" fill="#C0E398"/>
<path d="M300.251 309.65L322.298 309.65C322.298 327.288 307.6 331.697 300.251 331.697L300.251 309.65Z" fill="#C0E398"/>
<path d="M322.299 309.652L300.252 309.652C300.252 292.015 314.95 287.606 322.299 287.606L322.299 309.652Z" fill="#C0E398"/>
<path d="M369.698 262.25L347.651 262.25C347.651 244.613 362.349 240.203 369.698 240.203L369.698 262.25Z" fill="#C0E398"/>
<path d="M347.652 262.248L369.698 262.248C369.698 279.885 355 284.295 347.652 284.295L347.652 262.248Z" fill="#C0E398"/>
<path d="M276 309.65L298.047 309.65C298.047 327.288 283.349 331.697 276 331.697L276 309.65Z" fill="#C0E398"/>
<path d="M298.048 309.652L276.001 309.652C276.001 292.015 290.699 287.606 298.048 287.606L298.048 309.652Z" fill="#C0E398"/>
</svg>

<svg width="440" height="382" fill="none" xmlns="http://www.w3.org/2000/svg"><path d="M78.044 69.047V47c17.637 0 22.047 14.698 22.047 22.047H78.044Z" fill="#C0E398"/><path d="M78.047 47v22.047C60.41 69.047 56 54.349 56 47h22.047Zm49.608 73.856v22.046c-17.637 0-22.046-14.697-22.046-22.046h22.046Z" fill="#C0E398"/><path d="M127.652 142.902v-22.047c17.638 0 22.047 14.698 22.047 22.047h-22.047ZM78.044 93.297V71.25c17.637 0 22.047 14.698 22.047 22.047H78.044Z" fill="#C0E398"/><path d="M78.047 71.25v22.047C60.41 93.297 56 78.599 56 71.25h22.047Zm49.608 25.356v22.046c-17.637 0-22.046-14.697-22.046-22.046h22.046Z" fill="#C0E398"/><path d="M127.652 118.652V96.606c17.638 0 22.047 14.697 22.047 22.046h-22.047Zm-2.206-47.402h-22.047c0-17.637 14.698-22.047 22.047-22.047V71.25Z" fill="#C0E398"/><path d="M103.4 71.248h22.046c0 17.637-14.697 22.047-22.046 22.047V71.248ZM80.251 118.65h22.047c0 17.638-14.698 22.047-22.047 22.047V118.65Z" fill="#C0E398"/><path d="M102.299 118.652H80.252c0-17.637 14.698-22.046 22.047-22.046v22.046Zm47.399-47.402h-22.047c0-17.637 14.698-22.047 22.047-22.047V71.25Z" fill="#C0E398"/><path d="M127.652 71.248h22.046c0 17.637-14.698 22.047-22.046 22.047V71.248ZM56 118.65h22.047c0 17.638-14.698 22.047-22.047 22.047V118.65Z" fill="#C0E398"/><path d="M78.048 118.652H56c0-17.637 14.698-22.046 22.047-22.046v22.046Zm219.996 141.395V238c17.637 0 22.047 14.698 22.047 22.047h-22.047Z" fill="#C0E398"/><path d="M298.047 238v22.047C280.41 260.047 276 245.349 276 238h22.047Zm49.608 73.856v22.046c-17.637 0-22.046-14.697-22.046-22.046h22.046Z" fill="#C0E398"/><path d="M347.652 333.902v-22.047c17.638 0 22.047 14.698 22.047 22.047h-22.047Zm-49.608-49.605V262.25c17.637 0 22.047 14.698 22.047 22.047h-22.047Z" fill="#C0E398"/><path d="M298.047 262.25v22.047c-17.637 0-22.047-14.698-22.047-22.047h22.047Zm49.608 25.356v22.046c-17.637 0-22.046-14.697-22.046-22.046h22.046Z" fill="#C0E398"/><path d="M347.652 309.652v-22.047c17.638 0 22.047 14.698 22.047 22.047h-22.047Zm-2.206-47.402h-22.047c0-17.637 14.698-22.047 22.047-22.047v22.047Z" fill="#C0E398"/><path d="M323.4 262.248h22.046c0 17.637-14.697 22.047-22.046 22.047v-22.047Zm-23.149 47.402h22.047c0 17.638-14.698 22.047-22.047 22.047V309.65Z" fill="#C0E398"/><path d="M322.299 309.652h-22.047c0-17.637 14.698-22.046 22.047-22.046v22.046Zm47.399-47.402h-22.047c0-17.637 14.698-22.047 22.047-22.047v22.047Z" fill="#C0E398"/><path d="M347.652 262.248h22.046c0 17.637-14.698 22.047-22.046 22.047v-22.047ZM276 309.65h22.047c0 17.638-14.698 22.047-22.047 22.047V309.65Z" fill="#C0E398"/><path d="M298.048 309.652h-22.047c0-17.637 14.698-22.046 22.047-22.046v22.046Z" fill="#C0E398"/></svg>
